icons/pushpin.svg

<svg width="24" height="24" viewBox="0 0 24 24" fill="none" xmlns="http://www.w3.org/2000/svg">
<path fill-rule="evenodd" clip-rule="evenodd" d="M13.9058 2.29289C14.2963 1.90237 14.9295 1.90237 15.32 2.29289L21.7071 8.67999C22.0976 9.07051 22.0976 9.70368 21.7071 10.0942C21.3597 10.4416 20.8204 10.48 20.4306 10.2094L16.6345 14.0056L14.9686 18.4479C14.9185 18.5816 14.8403 18.7029 14.7394 18.8039L12.9974 20.5458C12.6069 20.9363 11.9737 20.9363 11.5832 20.5458L8.22581 17.1884L3.70711 21.7071C3.31658 22.0976 2.68342 22.0976 2.29289 21.7071C1.90237 21.3166 1.90237 20.6834 2.29289 20.2929L6.81159 15.7742L3.45418 12.4168C3.26665 12.2292 3.16129 11.9749 3.16129 11.7097C3.16129 11.4445 3.26665 11.1901 3.45418 11.0026L5.19612 9.26063C5.29706 9.1597 5.41844 9.08154 5.5521 9.03141L9.99445 7.36553L13.7906 3.56937C13.52 3.17957 13.5584 2.64025 13.9058 2.29289ZM15.1935 4.99486L11.2555 8.93291C11.1546 9.03385 11.0332 9.11201 10.8995 9.16214L6.45717 10.828L5.5755 11.7097L12.2903 18.4245L13.172 17.5428L14.8379 13.1005C14.888 12.9668 14.9661 12.8454 15.0671 12.7445L19.0051 8.80645L15.1935 4.99486Z" fill="black"/>
</svg>

<svg
  width="24"
  height="24"
  viewBox="0 0 24 24"
  xmlns="http://www.w3.org/2000/svg"
>
  <path
    fill-rule="evenodd"
    clip-rule="evenodd"
    d="M13.906 2.293a1 1 0 0 1 1.414 0l6.387 6.387a1 1 0 0 1-1.276 1.53l-3.797 3.796-1.665 4.442a1 1 0 0 1-.23.356l-1.742 1.742a1 1 0 0 1-1.414 0l-3.357-3.358-4.519 4.52a1 1 0 0 1-1.414-1.415l4.519-4.519-3.358-3.357a1 1 0 0 1 0-1.414L5.196 9.26a1 1 0 0 1 .356-.23l4.442-1.665 3.797-3.797a1 1 0 0 1 .115-1.276zm1.287 2.702l-3.938 3.938a1 1 0 0 1-.356.23l-4.442 1.665-.881.882 6.714 6.714.882-.881 1.666-4.442a.998.998 0 0 1 .23-.357l3.937-3.938-3.811-3.811z"
  />
</svg>
